packages/ui-icons/svg/Line/heart.svg

<svg viewBox="0 0 1920 1920" version="1.1" xmlns="http://www.w3.org/2000/svg">
    <path d="M1692.48,910.647059 L959.717647,1598.00706 L228.536471,912.228235 C73.92,755.352941 73.92,500.105882 228.536471,343.230588 C303.077647,267.672941 402.24,225.997647 507.84,225.997647 L507.952941,225.997647 C613.44,225.997647 712.602353,267.672941 787.030588,343.230588 L787.143529,343.343529 C861.910588,419.127059 903.247059,520.209412 903.247059,627.729412 L1016.18824,627.729412 C1016.18824,520.209412 1057.41176,419.127059 1132.29176,343.230588 C1206.72,267.672941 1305.88235,225.997647 1411.48235,225.997647 L1411.59529,225.997647 C1517.08235,225.997647 1616.35765,267.672941 1690.78588,343.230588 C1845.40235,500.105882 1845.40235,755.352941 1692.48,910.647059 M1771.31294,263.945882 C1675.42588,166.590588 1547.57647,113.056471 1411.59529,113.056471 L1411.48235,113.056471 C1275.38824,113.056471 1147.65176,166.590588 1051.87765,263.832941 C1014.26824,301.894118 983.435294,344.811765 959.717647,391.230588 C936,344.811765 905.054118,301.894118 867.557647,263.945882 C771.783529,166.590588 644.047059,113.056471 507.952941,113.056471 L507.84,113.056471 C371.858824,113.056471 244.009412,166.590588 148.009412,263.945882 C-49.6376471,464.642353 -49.6376471,790.929412 149.703529,992.981176 L959.717647,1752.84941 L1771.31294,991.4 C1968.96,790.929412 1968.96,464.642353 1771.31294,263.945882" stroke="none" stroke-width="1" fill-rule="evenodd"/>
</svg>

<svg viewBox="0 0 1920 1920" xmlns="http://www.w3.org/2000/svg">
    <path d="m1692.48 910.647-732.762 687.36-731.182-685.779c-154.616-156.875-154.616-412.122 0-568.997 74.542-75.558 173.704-117.233 279.304-117.233h.113c105.487 0 204.65 41.675 279.078 117.233l.113.113c74.767 75.783 116.103 176.865 116.103 284.385h112.941c0-107.52 41.224-208.602 116.104-284.498 74.428-75.558 173.59-117.233 279.19-117.233h.113c105.487 0 204.763 41.675 279.19 117.233 154.617 156.875 154.617 412.122 1.695 567.416m78.833-646.701c-95.887-97.355-223.737-150.89-359.718-150.89h-.113c-136.094 0-263.83 53.535-359.604 150.777-37.61 38.061-68.443 80.979-92.16 127.398-23.718-46.42-54.664-89.337-92.16-127.285-95.774-97.355-223.51-150.89-359.605-150.89h-.113c-135.981 0-263.83 53.535-359.83 150.89-197.648 200.696-197.648 526.983 1.694 729.035l810.014 759.868L1771.313 991.4c197.647-200.47 197.647-526.758 0-727.454" fill-rule="evenodd"/>
</svg>
